!! 00000] TT[WS
!!!OTL: Pan wugeng
!!!ARE: Asia, China, Shanxi Xingxian
!! Ethnic Group: Han
!! WII, 90 (1)
!!!SCT: J0533
!!!YEM: Copyright 1995, estate of Helmut Schaffrath.
**kern
*ICvox
*Ivox
*M2/4
*k[f#c#g#]
*A:
{4e
8e
8f#
=1
2a
=2
8ee
8cc#
8b
16a
16f#
=3
2e}
=4
{8a
4.b
=5
8ee
8cc#
4b
=6
8a
8b
8a
8f#
=7
2e}
=8
{8.a
16cc#
4b
=9
8b
8ee
8cc#
8b
=10
4cc#
8.e
16f#
=11
2a}
=12
{8.cc#
16b
8a
8f#
=13
8.e
16f#
4a
=14
8f#
8e
8c#
8B
=15
2e}
==
!!!AGN: Xiaodiao. Qingge, Sichun
!!!ONB: ESAC (Essen Associative Code) Database: CHINA
!!!AMT: simple duple
!!!AIN: vox
!!!EED: Helmut Schaffrath
!!!EEV: 1.0
*-
